X:292
T:Pheasant's Dance
D:Cut & Dry Band
O:Northumbria
Z:Nigel Gatherer <gatherer@argonet.co.uk>
M:6/8
L:1/8
K:G
B2 c ded|c2 B ABc|dBG E2 A|FDF G3:|
B2 G c2 A|B2 G A2 g|dBG E2 A|FDF G3:|
BdB cec|AcA BdB|GBG AcA|FDF G3:|
f2 d gdB|gdB a2 A|Bcd E2 A|FDF G3:|
<end>
<start>
